dist/img/ekoniva_f.svg

<svg width="75" height="76" viewBox="0 0 75 76" fill="none" xmlns="http://www.w3.org/2000/svg">
<path d="M37.6313 0.710961L0.375488 37.9668L37.6313 75.2226L74.8872 37.9668L37.6313 0.710961Z" fill="#27A536"/>
<path d="M15.2445 41.2015H17.9063C17.7549 40.7647 17.4986 40.4327 17.1258 40.2055C16.753 39.9784 16.3104 39.8677 15.792 39.8677C15.5474 39.8677 15.297 39.9085 15.0407 39.9958C14.7844 40.0832 14.5456 40.2113 14.3185 40.3919L13.7302 39.1571C13.9573 38.9474 14.2718 38.7552 14.6854 38.5805C15.0989 38.4058 15.5882 38.3242 16.1706 38.3242C16.6599 38.3242 17.1142 38.4116 17.5335 38.5921C17.9529 38.7727 18.314 39.0231 18.6169 39.3493C18.9256 39.6755 19.1644 40.0657 19.3333 40.52C19.5022 40.9743 19.5895 41.4811 19.5895 42.046C19.5895 42.6226 19.508 43.141 19.3391 43.6011C19.1702 44.0613 18.9314 44.4515 18.611 44.7718C18.2965 45.0922 17.9121 45.3368 17.4695 45.5057C17.0268 45.6746 16.5259 45.762 15.9668 45.762C15.7221 45.762 15.4833 45.7445 15.2562 45.6979C15.029 45.6572 14.8135 45.6047 14.6097 45.5349C14.4116 45.465 14.2311 45.3892 14.0738 45.296C13.9166 45.2087 13.7826 45.1097 13.6836 45.0106L14.3417 43.6244C14.5165 43.7817 14.7378 43.9215 15.0174 44.038C15.2911 44.1603 15.5998 44.2185 15.9435 44.2185C16.1706 44.2185 16.3861 44.1894 16.6016 44.137C16.8171 44.0846 17.0093 43.9972 17.1899 43.8749C17.3704 43.7526 17.5277 43.6011 17.6617 43.4148C17.7956 43.2284 17.8946 43.0012 17.9645 42.7391H15.2445V41.1957V41.2015Z" fill="white"/>
<path d="M20.2534 38.4531H21.8027V41.5867L24.0218 38.4531H25.8798L23.3345 41.773L26.0836 45.6463H24.1208L21.8085 42.2273V45.6463H20.2592V38.4589L20.2534 38.4531Z" fill="white"/>
<path d="M25.3384 42.048C25.3384 41.5296 25.4258 41.0404 25.6005 40.5919C25.7752 40.1376 26.0198 39.7474 26.3343 39.4096C26.6489 39.0717 27.0275 38.8096 27.4701 38.6174C27.9128 38.4252 28.402 38.332 28.9495 38.332C29.4679 38.332 29.9455 38.4194 30.3823 38.5883C30.8192 38.7572 31.2036 39.0077 31.5239 39.328C31.8443 39.6484 32.1005 40.0386 32.2811 40.4987C32.4617 40.9588 32.5548 41.4772 32.5548 42.048C32.5548 42.5955 32.4617 43.0964 32.2811 43.5507C32.1005 44.005 31.8501 44.4011 31.5239 44.7273C31.2036 45.0534 30.8192 45.3097 30.3823 45.4902C29.9455 45.6708 29.4679 45.764 28.9495 45.764C28.4312 45.764 27.9536 45.6766 27.5167 45.5077C27.0799 45.3388 26.6955 45.0884 26.3751 44.768C26.0548 44.4477 25.7985 44.0574 25.618 43.5973C25.4374 43.1372 25.3442 42.6188 25.3442 42.048H25.3384ZM26.9867 42.048C26.9867 42.3567 27.0391 42.6421 27.144 42.91C27.2488 43.1779 27.3886 43.4051 27.5633 43.6031C27.738 43.8012 27.9419 43.9526 28.1807 44.0633C28.4195 44.1739 28.6758 44.2263 28.9437 44.2263C29.264 44.2263 29.5494 44.1681 29.7882 44.0574C30.0329 43.9468 30.2309 43.7895 30.3998 43.5973C30.5629 43.3993 30.691 43.1721 30.7726 42.9042C30.8541 42.6363 30.9007 42.3509 30.9007 42.0538C30.9007 41.7277 30.8483 41.4248 30.7493 41.1627C30.6503 40.8948 30.5105 40.6676 30.3357 40.4754C30.1552 40.2832 29.9513 40.1376 29.7125 40.0328C29.4737 39.9279 29.2174 39.8813 28.9495 39.8813C28.6641 39.8813 28.402 39.9337 28.1632 40.0328C27.9244 40.1376 27.7206 40.2832 27.5458 40.4754C27.3711 40.6676 27.2371 40.8948 27.1381 41.1627C27.0391 41.4306 26.9925 41.7277 26.9925 42.0538L26.9867 42.048Z" fill="white"/>
<path d="M37.2259 42.7457H34.7563V45.6405H33.207V38.4531H34.7563V41.2081H37.2259V38.4531H38.7752V45.6405H37.2259V42.7457Z" fill="white"/>
<path d="M39.5439 45.6405V38.4531H41.0932V42.9205L44.0928 38.4531H45.4499V45.6405H43.9006V41.1731L40.901 45.6405H39.5439Z" fill="#004C23"/>
<path d="M53.4528 38.4473H54.8332L57.6463 45.6346H55.998L55.4331 44.1261H52.7422L52.1772 45.6346H50.6279L53.4411 38.4473H53.4528ZM53.3363 42.5884H54.8623L54.1051 40.5557L53.3363 42.5884Z" fill="white"/>
<path d="M20.2534 30.4394H25.3847V31.9771H21.8027V33.241H25.0935V34.7786H21.8027V36.0833H25.4837V37.6209H20.2534V30.4336V30.4394Z" fill="white"/>
<path d="M26.2817 30.4395H27.831V33.573L30.0501 30.4395H31.9081L29.3629 33.7594L32.112 37.6326H30.1492L27.8369 34.2137V37.6326H26.2876V30.4453L26.2817 30.4395Z" fill="white"/>
<path d="M31.6172 34.0324C31.6172 33.514 31.7046 33.0248 31.8793 32.5763C32.054 32.122 32.2987 31.7317 32.6132 31.3939C32.9277 31.0561 33.3063 30.794 33.7489 30.6018C34.1916 30.4096 34.6808 30.3164 35.2283 30.3164C35.7467 30.3164 36.2243 30.4038 36.6611 30.5727C37.098 30.7416 37.4824 30.992 37.8027 31.3124C38.1231 31.6327 38.3793 32.023 38.5599 32.4831C38.7405 32.9432 38.8337 33.4616 38.8337 34.0324C38.8337 34.5799 38.7405 35.0808 38.5599 35.5351C38.3793 35.9894 38.1289 36.3854 37.8027 36.7116C37.4824 37.0378 37.098 37.2941 36.6611 37.4746C36.2243 37.6552 35.7467 37.7484 35.2283 37.7484C34.71 37.7484 34.2324 37.661 33.7955 37.4921C33.3587 37.3232 32.9743 37.0727 32.6539 36.7524C32.3336 36.432 32.0773 36.0418 31.8968 35.5817C31.7162 35.1215 31.623 34.6032 31.623 34.0324H31.6172ZM33.2655 34.0324C33.2655 34.3411 33.3179 34.6265 33.4228 34.8944C33.5276 35.1623 33.6674 35.3895 33.8421 35.5875C34.0169 35.7797 34.2207 35.937 34.4595 36.0476C34.6983 36.1583 34.9546 36.2107 35.2225 36.2107C35.5428 36.2107 35.8283 36.1525 36.0671 36.0418C36.3117 35.9311 36.5097 35.7739 36.6786 35.5817C36.8417 35.3836 36.9698 35.1565 37.0514 34.8886C37.1329 34.6207 37.1795 34.3353 37.1795 34.0382C37.1795 33.712 37.1271 33.4092 37.0281 33.1471C36.9291 32.8792 36.7893 32.652 36.6145 32.4598C36.434 32.2676 36.2301 32.122 35.9913 32.0171C35.7525 31.9123 35.4963 31.8657 35.2283 31.8657C34.9429 31.8657 34.6808 31.9181 34.442 32.0171C34.2032 32.122 33.9994 32.2676 33.8246 32.4598C33.6499 32.652 33.5159 32.8792 33.4169 33.1471C33.3179 33.415 33.2713 33.712 33.2713 34.0382L33.2655 34.0324Z" fill="white"/>
<path d="M44.2152 37.6268L41.0001 33.3109V37.6268H39.5498V30.4395H40.7904L44.0055 34.7728V30.4395H45.4558V37.6268H44.2152Z" fill="#004C23"/>
<path d="M46.2246 30.4395H47.7739V37.6268H46.2246V30.4395Z" fill="white"/>
<path d="M56.5631 30.4395H57.9435L60.7567 37.6268H59.1084L58.5434 36.1183H55.8525L55.2876 37.6268H53.7383L56.5515 30.4395H56.5631ZM56.4466 34.5806H57.9726L57.2155 32.5479L56.4466 34.5806Z" fill="white"/>
<path d="M53.8486 30.4395L51.8624 35.5125L49.8763 30.4395H48.2222L51.0354 37.6268H52.6895L55.5027 30.4395H53.8486Z" fill="white"/>
<path d="M46.2246 38.4703C46.3236 38.4645 46.4459 38.4587 46.6032 38.447C46.7605 38.4354 46.9294 38.4354 47.1157 38.4237C47.3021 38.4179 47.4943 38.4121 47.6982 38.4062C47.8962 38.4062 48.0942 38.4062 48.2806 38.4062C48.6883 38.4062 49.032 38.4528 49.3232 38.546C49.6086 38.6392 49.8474 38.7674 50.028 38.9246C50.2143 39.0877 50.3483 39.2741 50.4298 39.4954C50.5114 39.7167 50.558 39.9497 50.558 40.1943C50.558 40.5729 50.4939 40.8875 50.3599 41.1437C50.226 41.4 50.0338 41.6155 49.7833 41.7961V41.8194C49.9056 41.866 50.0279 41.9358 50.1444 42.029C50.2609 42.1222 50.3658 42.2329 50.4531 42.3669C50.5405 42.5008 50.6162 42.6581 50.6686 42.8386C50.7211 43.0192 50.7502 43.2289 50.7502 43.4618C50.7502 43.8404 50.6861 44.1666 50.558 44.4403C50.4298 44.7199 50.2493 44.9471 50.0163 45.1335C49.7833 45.3198 49.5096 45.4538 49.2009 45.547C48.8864 45.6344 48.5485 45.681 48.1816 45.681C48.0185 45.681 47.8438 45.681 47.6574 45.681C47.471 45.681 47.2905 45.6751 47.1099 45.6693C46.9294 45.6693 46.7663 45.6635 46.609 45.6518C46.4518 45.646 46.3294 45.6344 46.2304 45.6227V38.4761L46.2246 38.4703ZM48.2573 39.9497C48.1583 39.9497 48.0768 39.9497 48.0127 39.9614C47.9428 39.9672 47.8671 39.9788 47.7739 39.9905V41.2952H48.2864C48.4845 41.2952 48.6534 41.2427 48.7932 41.1379C48.933 41.0331 49.0029 40.8525 49.0029 40.5962C49.0029 40.3749 48.9271 40.2118 48.7699 40.107C48.6126 40.0021 48.4437 39.9497 48.2573 39.9497ZM47.7739 42.7338V44.0792C47.8263 44.0909 47.8904 44.1084 47.9603 44.12C48.036 44.1317 48.1467 44.1375 48.2923 44.1375C48.5951 44.1375 48.8223 44.0734 48.9679 43.9394C49.1135 43.8055 49.1892 43.6191 49.1892 43.3803C49.1892 43.1531 49.1135 42.9901 48.9679 42.8852C48.8223 42.7804 48.6184 42.7338 48.368 42.7338H47.7681H47.7739Z" fill="white"/>
<path d="M60.0811 31.1906C60.0811 30.7537 60.3898 30.3984 60.7683 30.3984C61.1469 30.3984 61.4556 30.7537 61.4556 31.1906C61.4556 31.6274 61.1469 31.9827 60.7683 31.9827C60.3898 31.9827 60.0811 31.6274 60.0811 31.1906ZM60.25 31.1906C60.25 31.5226 60.483 31.7847 60.7683 31.7847C61.0596 31.7847 61.2867 31.5226 61.2867 31.1906C61.2867 30.8586 61.0596 30.5965 60.7683 30.5965C60.483 30.5965 60.25 30.8586 60.25 31.1906ZM61.0596 31.0216C61.0596 31.1323 61.0071 31.2197 60.9198 31.2546L61.1003 31.5575C61.1003 31.5575 61.0537 31.5866 60.9955 31.5866C60.9431 31.5866 60.9081 31.5691 60.9081 31.5691L60.7276 31.2779H60.6752V31.5691C60.6752 31.5691 60.6344 31.5866 60.5936 31.5866C60.5412 31.5866 60.5062 31.5691 60.5062 31.5691V30.7654H60.7975C60.9489 30.7654 61.0479 30.8702 61.0479 31.0216H61.0596ZM60.7916 31.1207C60.8499 31.1207 60.8848 31.0857 60.8848 31.0216C60.8848 30.9576 60.8499 30.9226 60.7916 30.9226H60.681V31.1148H60.7916V31.1207Z" fill="white"/>
</svg>

<svg width="75" height="76" viewBox="0 0 75 76" fill="none" xmlns="http://www.w3.org/2000/svg"><path d="M37.631.711L.375 37.967l37.256 37.256 37.256-37.256L37.631.71z" fill="#27A536"/><path d="M15.245 41.202h2.661c-.151-.437-.407-.77-.78-.996-.373-.228-.816-.338-1.334-.338a2.379 2.379 0 00-1.473.524l-.589-1.235c.227-.21.542-.402.955-.576.414-.175.903-.257 1.486-.257.489 0 .943.088 1.363.268.419.18.78.431 1.083.757.309.327.547.717.716 1.171.17.454.257.961.257 1.526a4.51 4.51 0 01-.25 1.555c-.17.46-.409.85-.729 1.17a3.147 3.147 0 01-1.142.735 4.19 4.19 0 01-1.502.256 3.5 3.5 0 01-.71-.064 4.371 4.371 0 01-.647-.163 3.032 3.032 0 01-.536-.239 1.777 1.777 0 01-.39-.285l.658-1.387c.175.158.396.297.675.414.274.122.583.18.927.18.227 0 .442-.029.658-.081a1.864 1.864 0 001.06-.722c.134-.187.233-.414.302-.676h-2.72v-1.543.006zm5.008-2.749h1.55v3.134l2.219-3.134h1.858l-2.546 3.32 2.75 3.873H24.12l-2.313-3.419v3.42H20.26v-7.188l-.006-.006z" fill="#fff"/><path d="M25.338 42.048c0-.518.088-1.008.262-1.456.175-.454.42-.845.734-1.182.315-.338.694-.6 1.136-.793a3.663 3.663 0 011.48-.285c.518 0 .995.087 1.432.256.437.17.822.42 1.142.74.32.32.576.71.757 1.17.18.46.274.98.274 1.55 0 .547-.093 1.048-.274 1.503a3.416 3.416 0 01-1.899 1.939c-.437.18-.914.274-1.433.274-.518 0-.995-.087-1.432-.256a3.274 3.274 0 01-1.142-.74c-.32-.32-.576-.71-.757-1.17a4.217 4.217 0 01-.274-1.55h-.006zm1.649 0a2.336 2.336 0 00.576 1.555c.175.198.379.35.618.46.238.11.495.163.763.163.32 0 .605-.058.844-.169.245-.11.443-.268.612-.46.163-.198.291-.425.373-.693.081-.268.128-.553.128-.85a2.53 2.53 0 00-.152-.891 2.081 2.081 0 00-.413-.688 1.874 1.874 0 00-.623-.442 1.878 1.878 0 00-.764-.152c-.285 0-.547.053-.786.152-.239.105-.442.25-.617.442a2.07 2.07 0 00-.408.688 2.555 2.555 0 00-.146.89l-.005-.005zm10.239.698h-2.47v2.895h-1.549v-7.188h1.55v2.755h2.469v-2.755h1.55v7.188h-1.55v-2.895z" fill="#fff"/><path d="M39.544 45.64v-7.187h1.55v4.467l2.999-4.467h1.357v7.188H43.9v-4.468l-2.999 4.468h-1.357z" fill="#004C23"/><path d="M53.453 38.447h1.38l2.813 7.188h-1.648l-.565-1.509h-2.69l-.566 1.509h-1.55l2.814-7.188h.012zm-.117 4.141h1.526l-.757-2.032-.769 2.032zM20.253 30.44h5.132v1.537h-3.582v1.264h3.29v1.538h-3.29v1.304h3.68v1.538h-5.23v-7.187.005zm6.029 0h1.549v3.133l2.22-3.134h1.857l-2.545 3.32 2.749 3.874h-1.963l-2.312-3.42v3.42h-1.55v-7.188l-.005-.006z" fill="#fff"/><path d="M31.617 34.032c0-.518.088-1.007.262-1.456.175-.454.42-.844.734-1.182.315-.338.693-.6 1.136-.792a3.663 3.663 0 011.48-.286c.518 0 .995.088 1.432.257.437.169.821.419 1.142.74.32.32.576.71.757 1.17.18.46.274.979.274 1.55 0 .547-.094 1.048-.274 1.502-.18.454-.431.85-.757 1.177-.32.326-.705.582-1.142.763-.437.18-.914.273-1.433.273-.518 0-.996-.087-1.433-.256a3.276 3.276 0 01-1.898-1.91 4.218 4.218 0 01-.274-1.55h-.006zm1.649 0a2.336 2.336 0 00.576 1.556c.175.192.379.349.617.46.24.11.496.163.763.163.32 0 .606-.058.845-.17.245-.11.443-.267.612-.46.163-.197.29-.425.372-.692.082-.268.128-.554.128-.85a2.53 2.53 0 00-.15-.892 2.081 2.081 0 00-.415-.687 1.876 1.876 0 00-.623-.443 1.88 1.88 0 00-.763-.151c-.285 0-.547.052-.786.151-.239.105-.443.25-.617.443a2.07 2.07 0 00-.408.687 2.554 2.554 0 00-.146.891l-.005-.006z" fill="#fff"/><path d="M44.215 37.627L41 33.31v4.316h-1.45v-7.188h1.24l3.215 4.334v-4.334h1.45v7.188h-1.24z" fill="#004C23"/><path d="M46.225 30.44h1.549v7.187h-1.55v-7.188zm10.338 0h1.38l2.814 7.187h-1.649l-.565-1.509h-2.69l-.565 1.509h-1.55l2.813-7.188h.012zm-.116 4.14h1.526l-.758-2.032-.768 2.033zm-2.598-4.14l-1.987 5.073-1.986-5.073h-1.654l2.813 7.187h1.655l2.813-7.188h-1.654zm-7.624 8.03c.099-.005.22-.011.378-.023.157-.012.326-.012.513-.023l.582-.018h.583c.407 0 .751.047 1.042.14.286.093.524.221.705.379.186.163.32.35.402.57.081.222.128.455.128.7 0 .378-.064.693-.198.949a1.863 1.863 0 01-.577.652v.023a1.432 1.432 0 01.67.547c.088.135.163.292.216.473.052.18.081.39.081.623 0 .378-.064.705-.192.978a1.87 1.87 0 01-.542.694c-.233.186-.506.32-.815.413a3.783 3.783 0 01-1.02.134h-.524c-.186 0-.366-.006-.547-.012-.18 0-.344-.005-.501-.017a4.589 4.589 0 01-.379-.03v-7.146l-.005-.006zm2.032 1.48c-.099 0-.18 0-.244.011-.07.006-.146.018-.24.03v1.304h.513a.82.82 0 00.507-.157c.14-.105.21-.285.21-.542 0-.221-.076-.384-.233-.489a.901.901 0 00-.513-.157zm-.483 2.784v1.345c.052.012.116.03.186.041.076.012.187.018.332.018.303 0 .53-.065.676-.199.145-.133.221-.32.221-.559 0-.227-.075-.39-.221-.495-.146-.105-.35-.151-.6-.151h-.6.006zM60.081 31.19c0-.436.309-.792.687-.792.379 0 .688.356.688.793 0 .436-.31.792-.688.792-.378 0-.687-.356-.687-.792zm.169 0c0 .333.233.595.518.595.292 0 .519-.262.519-.594 0-.332-.227-.595-.519-.595-.285 0-.518.263-.518.595zm.81-.168c0 .11-.053.198-.14.233l.18.303s-.046.029-.105.029c-.052 0-.087-.018-.087-.018l-.18-.291h-.053v.291s-.04.018-.081.018c-.053 0-.088-.018-.088-.018v-.804h.291c.152 0 .25.105.25.257h.013zm-.268.099c.058 0 .093-.035.093-.1 0-.063-.035-.098-.093-.098h-.111v.192h.11v.006z" fill="#fff"/></svg>
